X:10
T:Näbelmeer-Juiz. 2005  ABb  ABCDE
T:André von Moos-Müller (7.2.1957)
T:Dirigenten-Notiz  Edi Gasser
C:Unterwalden (CH)
%%partsbox
P:ABCDE
M:3/4
R:Naturjodel
L:1/4
K:A
[P:A] E/ A/ G/ | F>DD | dAF | f>ed | c>E d/c/ | B>EE | eed | c2B | 
Az/E/ A/G/ | F>DD | dAF | f>ed | c>E d/c/ | B>EE | ecB | (A3 | A)z/ || 
L:1/8
M:3/4
[P:B] c>B | Af Ge Fd | E3cA2 | B2Ee cB | A3FE2 | Af Ge Fd | 
E3cA2 | B2Ee cB | A3z c>B | Af Ge Fd | E3cA2 | 
B2Ee cB | A3FE2 | Af Ge Fd | E3cA2 | B2Ee cB | A4 || 
M:3/4
L:1/4
[P:C] E/ A/ G/ | F>DD | dAF | f>ed | c>E d/c/ | B>EE | eed | c2B | 
Az/E/ A/G/ | F>DD | dAF | f>ed | c>E d/c/ | B>EE | GGA | (B3 | B)z/ ||
M:3/4
L:1/8
[P:D] c c>d | c3A A>B | c2AA A>E | F3f e>d | c2zc c>A | B3E B>d | c2AA A>G | F3F G>A | 
B2zc c>d | c3A A>B | c2AA A>E | F3f e>d | c2zc c>A | B3E B>d | c2AA A>B | ce c3B | A2z z2||
M:3/4
K:Bb
[P:E] d d>e | d3B B>c | d2BB B>F | G3g f>e | d2zd d>B | c3F c>e | 
d2BB B>A | G3G A>B | c2zd d>e | d3B B>c | d2BB B>F | G3g f>e | 
d2zd d>B | c3F c>e | d2BB B>c | df d3c | B3B g>_g | f3d dc | !fermata!B3 |]
W:
%W:Reihenfolge: A - B - C - D - E
W:für Kurt Hess, Alpnachstad, als kleine Anerkennung seiner Freude am Jodelgesang
W:
W:notiert Edi Gasser. Angaben André von Moos
W:UJV-Naturjodelsammlung: Code-Nr: 37-04
W:http://www.naturjodler.ch/code 37.htm  (with AUDIO)
%Juni 4, 2018

